64x64/apps/vivado_logo.svg

<svg height="64" width="64" xmlns="http://www.w3.org/2000/svg"><path d="m18 5 3 20.357-17 15.051v20.592l17-15.05 20.258 9.45 18.742-8.447-20.393-9.953-2.771-19.672z" opacity=".2"/><path d="m36.835 16.329-18.835-12.329 3 20.357 1.2 17.443 17.408-5.8z" fill="#acae26"/><path d="m4 39.408 17-15.051 11 9.043-11 11.549-17 15.051z" fill="#7b7c08"/><path d="m39.608 36 20.392 9.953-18.742 8.447-20.258-9.451 1.2-17.149z" fill="#dbde63"/><path d="m22.2 27.8-1.2 17.15.068.03 1.132-16.18 17.407 8.2 19.329 9.434 1.064-.48-20.393-9.954z" fill="#f4f4f7" opacity=".2"/><path d="m39.607 37-18.607-11.643v20.593zm-18.607 8.95c0-.001 0 0 0 0z" opacity=".2"/><g fill="#f4f4f7"><path d="m39.607 36-18.607-11.643v20.593zm-18.607 8.95c0-.001 0 0 0 0z"/><path d="m18 4 .164 1.107 18.672 12.221 2.637 18.717.134-.045-2.771-19.672z" opacity=".2"/><path d="m21 24.357-17 15.051v1l17-15.05 10.465 8.603.535-.56z" opacity=".1"/></g></svg>

<svg xmlns="http://www.w3.org/2000/svg" width="64" height="64" version="1"><path style="opacity:.2" d="m18 5 3 20.357L4 40.408V61l17-15.05 20.258 9.45L60 46.953 39.607 37l-2.771-19.672z"/><path style="fill:#acae26" d="M36.835 16.329 18 4l3 20.357L22.2 41.8 39.608 36z"/><path style="fill:#7b7c08" d="m4 39.408 17-15.051L32 33.4 21 44.949 4 60z"/><path style="fill:#dbde63" d="M39.608 36 60 45.953 41.258 54.4 21 44.949 22.2 27.8z"/><path style="opacity:.2;fill:#f4f4f7" d="M22.2 27.8 21 44.95l.068.03L22.2 28.8 39.607 37l19.329 9.434 1.064-.48L39.607 36 22.2 27.8z"/><path style="opacity:.2" d="M39.607 37 21 25.357V45.95zM21 45.95c0-.001 0 0 0 0z"/><path style="fill:#f4f4f7" d="M39.607 36 21 24.357V44.95zM21 44.95c0-.001 0 0 0 0z"/><path style="opacity:.2;fill:#f4f4f7" d="m18 4 .164 1.107 18.672 12.221 2.637 18.717.134-.045-2.771-19.672L18 4z"/><path style="opacity:.1;fill:#f4f4f7" d="M21 24.357 4 39.408v1l17-15.05 10.465 8.603.535-.56-11-9.044z"/></svg>
